X:20
T:Ronde I Pour Quoy
C:Tielman Susato
L:1/8
M:4/4
O:Germany 
Z:Andy Hornby
%%TUNEURL: http://www.leeds.ac.uk/music/Info/RRTuneBk/gettune/00000d87.html
%%ID:00000d87
K:G
A2e2e3e|d2e2c2A2|d3e dc BA|^GA- AG A4:|
|:AB cd e2e2|g2 f2 e4|AB cd e2e2|g3 f e4|
cB cd e2e2|cB cd e2e2|de =fe dc BA|^GA- AG A4:|
